!!!!SEGMENT: pl-wtm--r-1423--004_stefani-jozef--les-amours-du-village-no-4.krn
!!!cenid: 18xx:2434
!!!COM: Stefani, Józef
!!!COM-rismid: pe30024097
!!!CDT: 1800/04/16-1876/03/19
!!!CNT: Polish
!!!GTL: Les Amours du Village
!!!OTL: No. 4
!!!PDT:
!!!AGN: Secular
!!!SMS-siglum: PL-Wtm
!!!SMS-shelfmark: R 1423
!!!SMS-shelfwork: 004 G
!!!SMS-variant:
!!!SMS-altvar:
!!!NIFC-rismid: 1001116122
!!!URL-scan: http://repozytorium.nifc.pl/skany/pl-wtm-nut--r1423
!!!ONB-nifc: UWAGA: części: 1. No. 1 (Allegretto), 2. No. 2 (Moderato), 3. No. 3 (Allegretto),
!!!OMD: All.°. mode.to. Nº 4.
!!!key:
**kern	**kern	**dynam
*part2	*part1	*part1
*staff2	*staff1	*
*Iforte	*Iforte	*
*I"Fotrepian	*I"Fotrepian	*
*>[A,B,B]	*>[A,B,B]	*>[A,B,B]
*>a	*>A	*>A
*clefG2	*clefG2	*
*k[fn]	*k[fn]	*
*C:	*C:	*
*M4/4	*M4/4	*
*met(c)	*met(c)	*
=1	=1	=1
!LO:TX:t=P:problem:znak ffn	!LO:TX:t=P:problem:znak ffn	!
8.dL 8.G/	8.gL 8.B/	.
16g/K	16g/K	mf
8.f#X/	8.f#X/	.
16g/Jk	16g/Jk	.
!	!LO:TX:a:i:t=/&colon; Matka Bautemps i Oyciec Lajaie ukazuią	!
8.fn/L	8.fn/L	.
16g/K	16g/K	.
8.f/	8.f/	.
16g/Jk	16g/Jk	.
=2	=2	=2
8.e/L	8.e/L	.
16g/K	16g/K	.
8.e/	8.e/	.
16g/Jk	16g/Jk	.
8.d/L	8.d/L	.
16g/K	16g/K	.
8.f/	8.a/	.
16d/Jk	16b/Jk	.
=3	=3	=3
*	*2\right	*
2e/	2cc\	.
8.f/L	8.a/L	.
16g/K	16b/K	.
8.a/	8.cc/	.
16f/Jk	16a/Jk	.
!!LO:LB:g=original
=4	=4	=4
*^	*	*
!	!	!LO:TX:a:i:t=się na wzgórzach &colon;/	!
4.e/	2ryy	4.g/	.
8c/	.	8ee\	.
4e/	2c\	4cc\	.
(<4e/	.	4cc\	.
=5	=5	=5	=5
4c/)	4c\	[2dd\	.
(8B/L	4ryy	.	.
8A/J	.	.	.
2G/)	2ryy	8.dd\L]	.
.	.	16dd\K	.
.	.	8.gg\	.
.	.	16ff\Jk	.
*v	*v	*	*
=6	=6	=6
4c/	4ee\	.
4a/	4ff\	.
8.g/L	8.dd\L	.
16g/K	16g\K	.
8.f/	8.a\	.
16d/Jk	16b\Jk	.
=7	=7	=7
2e/	2cc\	.
8.f/L	8.a\L	.
16g/K	16b\K	.
8.a/	8.cc\	.
16f/Jk	16a\Jk	.
!!LO:LB:g=original
=8	=8	=8
*	*^	*
4.e/	4.g/	4.ryy	.
8c/	8ee/	8e/	.
4e/	4cc\	2ryy	.
4e/	4cc\	.	.
*	*v	*v	*
=9	=9	=9
8.d/L	4b\	.
16g/Jk	.	.
*rep	*	*
8.d/L	(8.ee\L	.
16g/Jk	16dd\Jk)	.
*Xrep	*	*
8.d/L	(8.cc#X\L	.
16f#X/Jk	16dd\K)	.
*rep	*	*
8.d/L	(8ccn\	.
.	8a\J)	.
16f#X/Jk	.	.
*Xrep	*	*
=10	=10	=10
!LO:TX:a:t=//	!	!
8.g/Lyy	8.g/L	.
16g/Kyy	16g/K	.
8.d/yy	8.d/	.
16B/Jkyy	16B/Jk	.
4G/yy	4G/	.
=!|:	=!|:	=!|:
*>B	*>B	*>B
!	!LO:TX:a:i:t=/&colon; Jakób przed matką	!
4g/	4g/	.
=11	=11	=11
!	!LO:TX:b:t=dolce	!
(4.dd\	4.ff 4.dd\	.
8cc\	8ee 8cc\	.
8b\L	(8ddL 8b\	.
!	!LO:TX:t=P:problem:dwa krzyżyki cc# i aa#	!
8a#X\	8cc#X\	.
8b\	8dd\	.
8dd\J)	8aa\J)	.
!!LO:LB:g=original
=12	=12	=12
!	!LO:TX:b:i:t=Boutemps wyznaie miłość swoię &colon;/	!
4.ee\	4.gg\	.
8cc\	8ee\	.
4ee\	4ccc\	.
4r	4ccc\	.
=13	=13	=13
8aT</L	8cccT\L	.
8g/	8bb\	.
8gT</	8bbt\	.
8f/J	8aa\J	.
8fT</L	8aaT\L	.
8e/	8gg\	.
8et</	8ggT\	.
8d/J	8ff\J	.
=14	=14	=14
(8c/L	(>8ee\L	.
8d/	8ff\	.
8d#X/	8ff#X\	.
8e/J)	8gg\J	.
4B/	4dd\	.
4g/	4g/)	.
=15	=15	=15
(4.dd\	4.ff\	.
8cc\	(8ee\	.
8b\L	8dd\L	.
8a#X\	8cc#X\	.
8b\	8dd\	.
8ff\J)	8aa\J)	.
=16	=16	=16
4.ee\	4.gg\	.
8cc\	8ee\	.
4ee\	4ccc\	.
4r	8r	.
.	8ccc\	.
!!LO:LB:g=original
=17	=17	=17
4c/	8ccc\L	.
.	8eee\	.
.	(8qeee/	.
4A/	8ddd\)	.
.	8ccc\J	.
.	(8qccc/	.
4d/	8bb\L)	.
.	8aa\	.
.	(8qaa/	.
4d/	8gg\)	.
.	8ff#X\J	.
=18	=18	=18
!	!LO:TX:t=P:problem:mixed beam	!
8.g/L	8.gg\L	.
16g/K	16g/K	.
8.f#X/	8.f#X/	.
16g/Jk	16g/Jk	.
8.f#/L	8.f#/L	.
16g/K	16g/K	.
8.fn/	8.a/	.
16d/Jk	16b/Jk	.
=19	=19	=19
2e/	2cc\	.
8.f/L	8.a/L	.
16g/K	16b/K	.
8qb\	(>8qdd\	.
8.a/	8.cc/)	.
16f/Jk	16a/Jk	.
=20	=20	=20
4.e/	4.g/	.
8c/	8e/	.
4e/	4cc\	.
4g/	4cc#X\	.
=21	=21	=21
4f/	4dd\	.
8.d/L	8.ff\L	.
16f/Jk	16dd\Jk	.
4e 4G/	4cc\	.
4f 4G/	4b\	.
=22	=22	=22
8.eL 8.G/	8.cc\L	.
16cc/K	16cc\K	.
8.g/	8.g\	.
16e/Jk	16e\Jk	.
4c/	4c/	.
==:|!	==:|!	==:|!
*-	*-	*-
!!!system-decoration: {(s1,s2)}
!!!RDF**kern: > = above
!!!RDF**kern: < = below
!!!AIN: 2 forte
!!!ENC: Marta Lawrence
!!!END: 2021-06-24
!!!ENC: Marcin Jachim
!!!END: 2021-06-18
